X: 1
T: Lady Harriot Hope
M: 4/4
L: 1/8
R: reel
K: Dmaj
|:DFAd A2GF|d2fd ~e3A|DFAd A2GF|GEAG (3(FGA) D2:|
d2de dfed|cAEA FAEA|d2de dfed|Bdce d3A|
d2de dfed|~e3f gfef|dBAG (3(FGA) dB|AF GE D2|]
